X:1
T:In midst of woods - Mundy
T:#
%%score { 1 | 2 } 3 4 5
L:1/8
Q:1/4=132
M:4/2
K:C
V:1 treble nm="Soprano I" snm="S"
V:2 treble 
V:3 treble nm="Alto" snm="A"
V:4 treble-8 nm="Tenor" snm="T"
V:5 bass3 nm="Bass" snm="B"
V:1
 z4"^In midst of woods""^John Mundy\n(c. 1555-1630)" G4 c4 c4 | c6 c2 d4 d4 | e4 c2 g4 e2 f2 d2 | %3
w: In midst of|woods or plea- sant|grove, Where all sweet birds do|
[M:4/2] e4 d2 c2 e4 d2 c2 | B4 c2 d4 c2 c2 B2 | c8 z4 c4 | c6 c2 c4 z2 c2 | f2 c2 A2 B2 c8 | %8
w: sing, where all sweet birds do|sing, where all sweet birds do|sing, Me-|thought I heard, I|heard so rare a sound,|
 z4 d4 d6 d2 | d4 z2 d2 g2 d2 B2 ^c2 | d4 z2 d2 e3 f g2 e2 | d4 z2 d2 f3 f e4 | %12
w: me- thought I|heard, I heard so rare a|sound, Which made the heavens to|ring, the heavens to ring,|
 z4 z2 e2 f3 g a2 g2 | e4 z2 c2 c2 c2 e4 | z4 z4 z2 d2 d2 d2 | g4 e6 ^f4 f2 | g6 e2 a4 g4 | %17
w: which made the heavens to|ring. The charm was good,|the charm was|good, the charm was|good, the noise full|
 ^f4 z2 d2 g4 =f4 | e8 z2 c2 d2 B2 | d2 c2 A4 z4 z2 c2 | B2 G2 B2 ^c2 d8 | d4 d2 e2 d6 f2 | %22
w: sweet, the noise full|sweet, Each bird did|play his part, each|bird did play his part,|And I ad- mir'd to|
 e4 d4 e4 z2 g2- | g2 e4 c4 f4 e2 | d4 z4 z4 z2 d2- | %25
w: hear the same; Joy|* sprung in- to my|heart, joy|
[Q:1/4=130] d2[Q:1/4=127] B4[Q:1/4=123] G4[Q:1/4=119] c4[Q:1/4=116] B2 |[Q:1/4=116] c16 |] %27
w: * sprung in- to my|heart.|
V:2
 z4 E4 G4 G4 | A6 (G2 A2) c4 B2 | c4 z2 G2 c4 A2 B2 |[M:4/2] c2 B2 B2 G4 A2 D2 G2 | %4
w: In midst of|woods or * plea- sant|grove, Where all sweet birds|do sing, where all sweet birds do|
 G4 G2 G4 G2 A2 G2 | G8 z4 A4 | A6 A2 A4 z2 A2 | A3 A A2 G2 G8 | z4 B4 B6 A2 | %9
w: sing, where all sweet birds do|sing, Me-|thought I heard, I|heard so rare a sound,|me- thought I|
 B4 z2 B2 B3 B B2 A2 | A8 z4 z2 G2 | B3 c d2 B2 A4 z2 G2 | B3 c d2 ^c2 d3 =c A2 B2 | c8 z4 z2 G2 | %14
w: heard, I heard so rare a|sound, Which|made the heavens to ring, which|made the heavens to ring, the heavens to|ring. The|
 G2 G2 c4 B4 B4 | z2 G2 G2 G2 c2 A2 A2 A2 | B6 A4 d4 ^c2 | d6 B4 c4 B2 | c6 G2 E2 C2 G4- | %19
w: charm was good, was good,|the charm was good, the charm was|good, the noise full|sweet, the noise so|sweet, Each bird did play|
 G4 F4 G6 A2 | G2 B2 B2 A2 A8 | B4 B2 c2 B6 (A2 | G2) c4 B2 c6 c2 | c8 z4 z2 c2- | %24
w: * his part, each|bird did play his part,|And I ad- mir'd to|* hear the same; the|same, Joy|
 c2 B4 A4 G4 ^F2 | G4 G4 c2 G2 A2 G2 | G16 |] %27
w: * sprung in- to my|heart, joy sprung in- to my|heart.|
V:3
 z4 C4 E4 E4 | F6 G2 F4 D4 | G8 z4 z4 |[M:4/2] C2 G4 E2 C4 (G2 E2) | D4 E2 D4 G2 F2 D2 | E8 z4 F4 | %6
w: In midst of|woods or plea- sant|grove,|Where all sweet birds do *|sing, where all sweet birds do|sing, Me-|
 F6 F2 F4 z2 F2 | F3 F F2 D2 E8 | z4 G4 G6 ^F2 | G4 z2 G2 G3 G G2 E2 | ^F4 z4 z2 C2 E3 =F | %11
w: thought I heard, I|heard so rare a sound,|me- thought I|heard, I heard so rare a|sound, Which made the|
 G2 G2 D2 G2 F3 F G2 E2 | D2 E2 F2 E2 A3 (G F2 D2) | G8 z2 G2 G4 | E2 G4 ^F2 G6 G2 | %15
w: heavens to ring, which made the heavens to|ring, which made the heavens to * *|ring. The charm|was good, the charm was|
 D4 z2 C4 D4 D2 | D6 C2 D4 G4 | A4 ^F2 G4 (E2 =F4) | G8 z2 C2 B,2 G,2 | B,2 (C2 D4) E4 E4 | %20
w: good, the charm was|good, the noise full|sweet, the noise so *|sweet, Each bird did|play his * part, each|
 D3 D G2 E2 ^F8 | G4 G2 G2 G6 F2 | G6 G2 G4 G2 E2- | E2 C2 C2 E2 F3 G A2 G2 | G4 G2 F3 E D4 D2 | %25
w: bird did play his part,|And I ad- mir'd to|hear the same; Joy sprung|* in- to my heart, in- to my|heart, joy sprung in- to my|
 D4 E4 G3 G F2 D2 | E16 |] %27
w: heart, joy sprung in- to my|heart.|
V:4
 z4 c4 c4 c4 | A6 e2 d6 d2 | c8 z4 z4 |[M:4/2][K:treble-8] z4 G2 c4 A2 B2 c2 | %4
w: In midst of|woods or plea- sant|grove,|Where all sweet birds do|
 G2 G2 c2 B2 B2 (e2 d4) | c8 z4 c4 | c6 F2 c4 z2 c2 | c2 A2 d3 d c8 | z4 B4 d6 d2 | %9
w: sing, where all sweet birds do *|sing Me-|thought I heard, I|heard so rare a sound,|me- thought I|
 d4 z2 d2 d2 B2 e3 e | d8 z4 z4 | z2 G2 B3 c d2 d2 G2 c2 | B2 G2 A8 d4 | c8 z2 e2 e2 e2 | %14
w: heard, I heard so rare a|sound,|Which made the heavens to ring, which|made the heavens to|ring. The charm was|
 e4 c4 d4 z2 G2 | G2 G2 c2 c2 A2 D2 A4 | (G6 c2) A4 e4 | A6 B2 G2 G2 d4 | z2 G2 E2 C2 c2 A2 G4 | %19
w: good, was good, the|charm was good, the charm was good,|the * noise full|sweet, the noise full sweet,|Each bird did play his part,|
 z4 z2 A2 B2 c2 c2 A2 | B4 e4 d8 | d4 d2 c2 d6 d2 | B2 (c2 d4) c8 | z4 z2 c4 A4 c2 | %24
w: each bird did play his|part, his part,|And I ad- mir'd to|hear the * same;|Joy sprung in-|
 d3 d e2 c2 c2 B2 A3 A | B4 G2 c4 e2 d3 d | c16 |] %27
w: to my heart, joy sprung in- to my|heart, joy sprng in- to my|heart.|
V:5
 C,8 C,4 C,4 | F,6 C,2 F,4 G,4 | C,8 z4 z4 |[M:4/2][K:bass3] z16 | z4 C,2 G,4 E,2 F,2 G,2 | %5
w: In midst of|woods or plea- sant|grove,||Where all sweet birds do|
 C,8 z4 F,4 | F,6 F,2 F,4 z2 F,2 | F,3 F, F,2 G,2 C,8 | z4 G,4 G,6 D,2 | %9
w: sing, Me-|thought I heard, I|heard so rare a sound,|me- thought I|
 G,4 z2 G,2 G,3 G, G,2 A,2 | D,8 z4 z4 | z4 z4 z2 D,2 E,3 F, | G,2 E,2 D,2 A,2 D,3 E, F,2 G,2 | %13
w: heard, I heard so rare a|sound,|Which made the|heavens to ring, which made the heavens to|
 C,8 z2 C,2 C,2 C,2 | C4 A,4 G,8 | z4 z4 z2 D,2 D,2 D,2 | G,6 A,2 ^F,4 E,4 | D,6 G,2 E,4 D,4 | %18
w: ring. The charm was|good, was good,|the charm was|good, the noise full|sweet, the noise full|
 C,8 z4 z4 | z4 z2 F,2 E,2 C,2 E,2 F,2 | G,3 G, G,2 A,2 D,8 | G,4 G,2 C,2 G,6 D,2 | %22
w: sweet,|Each bird did play his|part, did play his part,|And I ad- mir'd to|
 E,2 (C,2 G,4) C,8 | C4 A,4 F,4 F,2 C,2 | G,4 E,2 F,4 G,2 D,4 | G,4 E,4 C,4 F,2 G,2 | C,16 |] %27
w: hear the * same;|Joy sprung in- to my|heart, in- to my heart,|joy sprung in- to my|heart.|

